wp_data/wp-content/themes/eurostone/assets/images/illust01.svg

<svg width="593" height="536" viewBox="0 0 593 536" fill="none" xmlns="http://www.w3.org/2000/svg">
<path d="M575.554 120.587L547.858 84.1954V181.93L575.554 195.99V120.587ZM574.392 120.334H567.703L548.618 100.427V86.4718L574.392 120.334ZM548.618 105.858L564.038 122.06H562.995L548.603 108.253V105.858H548.618ZM563.233 122.834H564.559V189.562L563.233 188.893V122.834ZM565.319 122.298L548.618 104.757V101.543L567.151 120.87V190.857L565.334 189.934V122.283L565.319 122.298ZM548.618 109.325L562.473 122.611V188.491L548.618 181.469V109.325ZM567.911 191.259V121.108H574.779V194.74L567.911 191.259ZM323.071 235.372L300.992 237.158V277.373H323.071V235.372ZM322.297 276.614H301.752V237.872L322.297 236.205V276.614ZM353.881 233.364L326.9 235.432V277.373H353.881V233.364ZM353.106 276.614H327.66V236.146L353.106 234.197V276.614ZM323.056 281.718H300.977V318.987L323.056 320.475V281.718ZM322.282 319.657L301.737 318.273V282.476H322.282V319.657ZM353.866 282.298L326.885 281.703V320.431L353.866 321.978V282.298ZM353.091 321.174L327.645 319.702V282.491L353.091 283.057V321.174ZM407.098 213.278V250.965L437.535 251.5C437.535 251.5 437.565 251.515 437.58 251.515C437.595 251.515 437.61 251.5 437.625 251.5L481.515 252.259H481.903V222.651L407.515 213.323L407.083 213.263L407.098 213.278ZM447.607 250.905L442.318 250.816V218.471L447.607 219.14V250.92V250.905ZM448.381 219.215L472.845 222.279V251.336L448.381 250.905V219.215ZM441.558 250.786L437.982 250.726V218.024C437.982 218.024 437.953 217.95 437.938 217.905L441.573 218.367V250.801L441.558 250.786ZM481.158 251.47L473.619 251.336V222.369L481.158 223.321V251.485V251.47ZM407.873 214.126L437.282 217.816C437.282 217.816 437.208 217.935 437.208 218.009V250.712L407.873 250.206V214.141V214.126ZM575.509 234.643L547.813 230.73V253.405L575.509 253.896V234.643ZM558.376 232.992L561.281 233.408V252.869L558.376 252.824V232.992ZM557.601 252.809L556.067 252.78V232.664L557.601 232.888V252.809ZM562.041 233.512L570.608 234.718V253.033L562.041 252.884V233.512ZM548.573 231.608L555.292 232.56V252.765L548.573 252.646V231.608ZM574.735 253.107L571.368 253.047V234.822L574.735 235.298V253.107ZM532.468 9.99811V0.773663C532.468 0.357075 532.125 0 531.708 0C531.291 0 530.948 0.342197 530.948 0.773663V9.65591L330.342 81.5322L329.835 81.7108V150.165L176.397 107.539L176.158 107.48L175.89 107.584L1.53453 173.048V169.908C1.53453 169.492 1.19187 169.135 0.774715 169.135C0.357561 169.135 0.0148984 169.477 0.0148984 169.908V174.119H0V352.433L360.63 535.435L361.747 536V535.078L592.762 318.169L593 317.946V117.805L532.468 9.99811ZM331.37 82.7969L530.933 11.2925V354.204L491.527 350.142L490.916 203.905V203.28L474.901 199.977V52.6389L479.534 51.1064C479.728 51.0469 479.847 50.8237 479.772 50.6154C479.713 50.4072 479.489 50.303 479.281 50.3774L474.886 51.8354V47.9374C474.886 47.7291 474.707 47.5505 474.498 47.5505C474.29 47.5505 474.111 47.7291 474.111 47.9374V52.0884L384.721 81.7405V77.5002C384.721 77.292 384.542 77.1134 384.333 77.1134C384.125 77.1134 383.946 77.292 383.946 77.5002V81.9934L377.823 84.0318C377.629 84.0913 377.51 84.3144 377.584 84.5227C377.644 84.6864 377.793 84.7905 377.942 84.7905C377.987 84.7905 378.016 84.7905 378.061 84.7757L383.946 82.8266V181.231L383.201 181.082V180.829L331.34 187.762V82.7969H331.37ZM360.973 491.291L14.5706 338.627L57.1353 332.631L187.109 372.861V373.278L208.652 367.832L272.342 385.195C272.342 385.195 272.476 385.225 272.551 385.225C272.894 385.225 273.191 385.002 273.296 384.66C273.296 384.63 273.296 384.6 273.296 384.57L294.332 376.119L357.01 392.262V408.078C357.01 408.286 357.189 408.465 357.397 408.465C357.606 408.465 357.784 408.286 357.784 408.078V213.263L272.506 222.16L272.163 222.19V383.544L209.426 366.449V205.601L283.754 195.662V196.168C283.754 196.377 283.933 196.555 284.142 196.555C284.35 196.555 284.529 196.377 284.529 196.168V195.558L303.867 192.97V200.096C303.867 200.304 304.046 200.483 304.255 200.483C304.463 200.483 304.642 200.304 304.642 200.096V192.865L306.266 192.642V200.542C306.266 200.751 306.445 200.929 306.653 200.929C306.862 200.929 307.041 200.751 307.041 200.542V192.538L309.573 192.196L309.707 201.227C309.707 201.435 309.886 201.599 310.095 201.599C310.303 201.599 310.482 201.42 310.467 201.212L310.333 192.092L369.316 184.206V411.009L381.696 414.386V415.74L490.946 351.6L529.771 355.602L360.973 491.276V491.291ZM176.173 247.557H187.109V371.269L57.9547 331.292L57.1204 249.953L176.158 247.557H176.173ZM310.303 190.574L310.02 171.634L318.453 169.507C318.661 169.462 318.781 169.254 318.736 169.045C318.676 168.837 318.483 168.718 318.274 168.763L309.633 170.935L210.156 146.222C209.948 146.178 209.739 146.297 209.695 146.505C209.65 146.713 209.769 146.922 209.978 146.966L309.26 171.619L309.544 190.649L307.026 190.991V172.899L210.156 149.094C209.948 149.049 209.739 149.168 209.695 149.377C209.65 149.585 209.769 149.793 209.978 149.838L239.223 157.024V187.331C239.223 187.539 239.402 187.718 239.611 187.718C239.819 187.718 239.998 187.539 239.998 187.331V157.202L241.95 157.679V187.97C241.95 188.179 242.128 188.357 242.337 188.357C242.546 188.357 242.724 188.179 242.724 187.97V157.872L246.628 158.824C246.628 158.824 246.583 158.899 246.583 158.943V188.878C246.583 189.086 246.762 189.265 246.97 189.265C247.179 189.265 247.358 189.086 247.358 188.878V159.018L278.227 166.605C278.227 166.605 278.123 166.754 278.123 166.843V194.859L208.592 204.158L207.922 204.247V366.434L188.673 371.299V245.995H176.993V109.295L329.865 151.757V187.956L310.333 190.574H310.303ZM278.853 194.785V166.873C278.853 166.873 278.823 166.814 278.823 166.784L280.402 167.171V194.576L278.853 194.785ZM281.162 167.349L283.754 167.989V194.13L281.162 194.472V167.349ZM284.514 168.168L303.852 172.914V191.422L284.514 194.011V168.168ZM304.627 173.583H306.251V191.095L304.627 191.318V173.583ZM55.6007 249.983L56.435 331.187L13.3042 337.258V251.188L55.6007 249.983ZM273.028 383.856C273.028 383.856 272.968 383.826 272.938 383.811V222.889L293.93 220.702V375.465L273.028 383.856ZM357.025 391.474L294.705 375.42V220.613L357.025 214.111V391.459V391.474ZM369.703 184.177L381.696 182.57V413.999L369.703 410.726V184.177ZM383.231 413.077V182.629L394.032 184.861V406.739L383.231 413.077ZM394.42 184.95L489.397 204.545L490.008 350.41L394.42 406.53V184.935V184.95ZM474.141 81.9637L417.691 99.0884L413.415 96.5889L474.156 78.0061V81.9488L474.141 81.9637ZM412.834 97.1543L417.244 99.7282V188.104L412.834 187.197V97.1692V97.1543ZM418.019 188.253V99.7877L474.141 82.7671V199.828L418.019 188.253ZM474.141 69.4512L405.131 90.9054L385.436 82.3356L474.141 52.9216V69.466V69.4512ZM404.729 91.5601V185.203C404.729 185.411 404.908 185.59 405.117 185.59C405.325 185.59 405.504 185.411 405.504 185.203V91.575L474.156 70.2397V77.2027L412.372 96.0979L412.104 96.1872V187.018L384.795 181.379V82.8564L404.759 91.5601H404.729ZM175.443 109.414V246.055L57.1353 248.435L11.7846 249.73V337.421L1.54943 332.913V174.684L175.443 109.399V109.414ZM1.53453 334.55L360.213 492.63V533.5L1.53453 351.496V334.55ZM591.465 317.276L361.747 532.98V492.63L532.185 355.632L533.63 354.457L532.468 354.338V13.1374L591.465 118.207V317.291V317.276ZM96.4223 220.39C96.6309 220.39 96.8096 220.211 96.8096 220.003V166.591L103.842 167.424V218.783C103.842 218.991 104.02 219.17 104.229 219.17C104.438 219.17 104.616 218.991 104.616 218.783V167.349L144.023 153.81V155.655L131.255 159.94L130.852 159.747V160.074L106.285 168.316V218.619C106.285 218.828 106.464 219.006 106.672 219.006C106.881 219.006 107.06 218.828 107.06 218.619V169.164L108.028 169.566V218.381C108.028 218.59 108.207 218.768 108.415 218.768C108.624 218.768 108.803 218.59 108.803 218.381V169.581L127.768 163.496V215.718C127.768 215.926 127.947 216.105 128.156 216.105C128.364 216.105 128.543 215.926 128.543 215.718V161.651L130.882 160.862V215.302C130.882 215.51 131.061 215.688 131.27 215.688C131.478 215.688 131.657 215.51 131.657 215.302V160.937L133.117 161.621V215.004C133.117 215.212 133.296 215.391 133.504 215.391C133.713 215.391 133.892 215.212 133.892 215.004V161.651L144.067 158.184V213.531C144.067 213.739 144.246 213.918 144.455 213.918C144.663 213.918 144.842 213.739 144.842 213.531V148.945C144.842 148.737 144.663 148.558 144.455 148.558C144.246 148.558 144.067 148.737 144.067 148.945V152.992L104.229 166.68L96.5117 165.757C96.5117 165.757 96.4968 165.757 96.4819 165.757C96.4819 165.757 96.4819 165.757 96.467 165.757C96.4074 165.757 96.3776 165.802 96.3329 165.817C96.3031 165.832 96.2584 165.832 96.2286 165.862C96.1839 165.906 96.169 165.951 96.1392 166.01C96.1243 166.04 96.0945 166.07 96.0796 166.1C96.0796 166.1 96.0796 166.1 96.0796 166.129C96.0796 166.129 96.0796 166.129 96.0796 166.159V220.003C96.0796 220.211 96.2584 220.39 96.467 220.39H96.4223ZM127.739 162.722L108.415 168.926L107.76 168.659L127.739 161.949V162.722ZM133.475 160.996L132.253 160.431L144.008 156.488V157.411L133.475 161.011V160.996ZM28.6049 230.7C28.8135 230.7 28.9922 230.522 28.9922 230.314V190.916L33.9832 191.601V228.35C33.9832 228.558 34.162 228.737 34.3705 228.737C34.5791 228.737 34.7579 228.558 34.7579 228.35V191.541L66.9086 181.216V182.986L53.9172 186.855L53.515 186.691V186.974L36.2924 192.107L36.0243 192.181V228.052C36.0243 228.26 36.203 228.439 36.4116 228.439C36.6202 228.439 36.799 228.26 36.799 228.052V193.014L37.4247 193.237V227.874C37.4247 228.082 37.6035 228.26 37.8121 228.26C38.0206 228.26 38.1994 228.082 38.1994 227.874V193.267L51.4888 189.399V225.999C51.4888 226.207 51.6676 226.386 51.8761 226.386C52.0847 226.386 52.2635 226.207 52.2635 225.999V188.164L53.5448 187.777V225.716C53.5448 225.925 53.7235 226.103 53.9321 226.103C54.1407 226.103 54.3195 225.925 54.3195 225.716V187.837L55.0495 188.134V225.523C55.0495 225.731 55.2283 225.91 55.4368 225.91C55.6454 225.91 55.8242 225.731 55.8242 225.523V188.164L66.9533 184.861V223.916C66.9533 224.124 67.1321 224.303 67.3407 224.303C67.5492 224.303 67.728 224.124 67.728 223.916V176.604C67.728 176.395 67.5492 176.217 67.3407 176.217C67.1321 176.217 66.9533 176.395 66.9533 176.604V180.412L34.3854 190.872L28.7092 190.098C28.7092 190.098 28.6943 190.098 28.6794 190.098C28.6794 190.098 28.6645 190.098 28.6496 190.098C28.6049 190.098 28.5751 190.128 28.5304 190.143C28.4857 190.158 28.441 190.158 28.3963 190.202C28.3516 190.232 28.3367 190.291 28.3218 190.336C28.3069 190.366 28.2771 190.396 28.2622 190.425C28.2622 190.425 28.2622 190.44 28.2622 190.455C28.2622 190.455 28.2622 190.47 28.2622 190.485V230.329C28.2622 230.537 28.441 230.715 28.6496 230.715L28.6049 230.7ZM51.459 188.61L37.7972 192.598L37.6184 192.538L51.459 188.417V188.625V188.61ZM55.4071 187.479L55.0495 187.331L66.9086 183.805V184.087L55.422 187.494L55.4071 187.479ZM176.173 257.184H67.9664V311.117L176.173 326.203V257.184ZM75.5348 257.942H78.0377V307.963L175.399 319.315V322.499L75.5348 309.361V257.942ZM127.485 312.962V257.942H129.75V313.23L127.485 312.962ZM126.711 312.872L122.435 312.382V257.942H126.711V312.872ZM121.675 312.292L81.2557 307.576V257.942H121.675V312.292ZM80.481 307.249H78.7975V257.942H80.481V307.249ZM175.399 318.556L130.51 313.319V257.957H175.399V318.571V318.556ZM74.76 257.942V309.376L68.7262 310.328V257.942H74.76ZM70.9461 310.76L75.1474 310.105L175.384 323.287V325.325L70.9312 310.775L70.9461 310.76Z" fill="white" fill-opacity="0.2"/>
</svg>

<svg width="593" height="536" fill="none" xmlns="http://www.w3.org/2000/svg"><path d="M575.554 120.587l-27.696-36.392v97.735l27.696 14.06v-75.403zm-1.162-.253h-6.689l-19.085-19.907V86.472l25.774 33.862zm-25.774-14.476l15.42 16.202h-1.043l-14.392-13.807v-2.395h.015zm14.615 16.976h1.326v66.728l-1.326-.669v-66.059zm2.086-.536l-16.701-17.541v-3.214l18.533 19.327v69.987l-1.817-.923v-67.651l-.015.015zm-16.701-12.973l13.855 13.286v65.88l-13.855-7.022v-72.144zm19.293 81.934v-70.151h6.868v73.632l-6.868-3.481zm-244.84 44.113l-22.079 1.786v40.215h22.079v-42.001zm-.774 41.242h-20.545v-38.742l20.545-1.667v40.409zm31.584-43.25l-26.981 2.068v41.941h26.981v-44.009zm-.775 43.25H327.66v-40.468l25.446-1.949v42.417zm-30.05 5.104h-22.079v37.269l22.079 1.488v-38.757zm-.774 37.939l-20.545-1.384v-35.797h20.545v37.181zm31.584-37.359l-26.981-.595v38.728l26.981 1.547v-39.68zm-.775 38.876l-25.446-1.472v-37.211l25.446.566v38.117zm54.007-107.896v37.687l30.437.535s.03.015.045.015.03-.015.045-.015l43.89.759h.388v-29.608l-74.388-9.328-.432-.06.015.015zm40.509 37.627l-5.289-.089v-32.345l5.289.669v31.78-.015zm.774-31.69l24.464 3.064v29.057l-24.464-.431v-31.69zm-6.823 31.571l-3.576-.06v-32.702s-.029-.074-.044-.119l3.635.462v32.434l-.015-.015zm39.6.684l-7.539-.134v-28.967l7.539.952v28.164-.015zm-73.285-37.344l29.409 3.69s-.074.119-.074.193v32.703l-29.335-.506v-36.08zm167.636 20.517l-27.696-3.913v22.675l27.696.491v-19.253zm-17.133-1.651l2.905.416v19.461l-2.905-.045v-19.832zm-.775 19.817l-1.534-.029v-20.116l1.534.224v19.921zm4.44-19.297l8.567 1.206v18.315l-8.567-.149v-19.372zm-13.468-1.904l6.719.952v20.205l-6.719-.119v-21.038zm26.162 21.499l-3.367-.06v-18.225l3.367.476v17.809zM532.468 9.998V.774a.776.776 0 00-.76-.774.766.766 0 00-.76.774v8.882L330.342 81.532l-.507.179v68.454l-153.438-42.626-.239-.059-.268.104L1.535 173.048v-3.14a.775.775 0 00-.76-.773.765.765 0 00-.76.773v4.211H0v178.314l360.63 183.002 1.117.565v-.922l231.015-216.909.238-.223V117.805L532.468 9.998zM331.37 82.797l199.563-71.504v342.911l-39.406-4.062-.611-146.237v-.625l-16.015-3.303V52.639l4.633-1.533a.38.38 0 00.238-.49c-.059-.209-.283-.313-.491-.239l-4.395 1.458v-3.898a.394.394 0 00-.388-.386.394.394 0 00-.387.386v4.151l-89.39 29.652V77.5a.394.394 0 00-.388-.387.394.394 0 00-.387.387v4.493l-6.123 2.039a.382.382 0 00-.239.49c.06.164.209.268.358.268.045 0 .074 0 .119-.014l5.885-1.95v98.405l-.745-.149v-.253l-51.861 6.933V82.797h.03zm29.603 408.494L14.571 338.627l42.564-5.996 129.974 40.23v.417l21.543-5.446 63.69 17.363s.134.03.209.03c.343 0 .64-.223.745-.565v-.09l21.036-8.451 62.678 16.143v15.816c0 .208.179.387.387.387a.394.394 0 00.387-.387V213.263l-85.278 8.897-.343.03v161.354l-62.737-17.095V205.601l74.328-9.939v.506c0 .209.179.387.388.387a.394.394 0 00.387-.387v-.61l19.338-2.588v7.126c0 .208.179.387.388.387a.395.395 0 00.387-.387v-7.231l1.624-.223v7.9c0 .209.179.387.387.387a.394.394 0 00.388-.387v-8.004l2.532-.342.134 9.031c0 .208.179.372.388.372a.372.372 0 00.372-.387l-.134-9.12 58.983-7.886v226.803l12.38 3.377v1.354l109.25-64.14 38.825 4.002-168.798 135.674v.015zm-184.8-243.734h10.936v123.712L57.955 331.292l-.835-81.339 119.038-2.396h.015zm134.13-56.983l-.283-18.94 8.433-2.127a.381.381 0 00.283-.462.388.388 0 00-.462-.282l-8.641 2.172-99.477-24.713c-.208-.044-.417.075-.461.283a.38.38 0 00.283.461l99.282 24.653.284 19.03-2.518.342v-18.092l-96.87-23.805a.38.38 0 00-.461.283.38.38 0 00.283.461l29.245 7.186v30.307c0 .208.179.387.388.387a.395.395 0 00.387-.387v-30.129l1.952.477v30.291c0 .209.178.387.387.387a.393.393 0 00.387-.387v-30.098l3.904.952s-.045.075-.045.119v29.935c0 .208.179.387.387.387a.395.395 0 00.388-.387v-29.86l30.869 7.587s-.104.149-.104.238v28.016l-69.531 9.299-.67.089v162.187l-19.249 4.865V245.995h-11.68v-136.7l152.872 42.462v36.199l-19.532 2.618h-.03zm-31.45 4.211v-27.912s-.03-.059-.03-.089l1.579.387v27.405l-1.549.209zm2.309-27.436l2.592.64v26.141l-2.592.342v-27.123zm3.352.819l19.338 4.746v18.508l-19.338 2.589v-25.843zm20.113 5.415h1.624v17.512l-1.624.223v-17.735zm-249.026 76.4l.834 81.204-43.13 6.071v-86.07l42.296-1.205zm217.427 133.873l-.09-.045V222.889l20.992-2.187v154.763l-20.902 8.391zm83.997 7.618l-62.32-16.054V220.613l62.32-6.502v177.363zm12.678-207.297l11.993-1.607v231.429l-11.993-3.273V184.177zm13.528 228.9V182.629l10.801 2.232v221.878l-10.801 6.338zM394.42 184.95l94.977 19.595.611 145.865-95.588 56.12V184.935v.015zm79.721-102.986l-56.45 17.124-4.276-2.5 60.741-18.582v3.943l-.015.015zm-61.307 15.19l4.41 2.574v88.376l-4.41-.907V97.154zm5.185 91.099V99.788l56.122-17.02v117.06l-56.122-11.575zm56.122-118.802l-69.01 21.454-19.695-8.57 88.705-29.413v16.544-.015zm-69.412 22.11v93.642c0 .208.179.387.388.387a.395.395 0 00.387-.387V91.575l68.652-21.335v6.963l-61.784 18.895-.268.09v90.83l-27.309-5.639V82.856l19.964 8.704h-.03zm-229.286 17.853v136.641l-118.308 2.38-45.35 1.295v87.691l-10.236-4.508V174.684l173.894-65.285v.015zM1.535 334.55l358.678 158.08v40.87L1.535 351.496V334.55zm589.93-17.274L361.747 532.98v-40.35l170.438-136.998 1.445-1.175-1.162-.119v-341.2l58.997 105.069v199.084-.015zM96.422 220.39a.394.394 0 00.388-.387v-53.412l7.032.833v51.359c0 .208.178.387.387.387a.394.394 0 00.387-.387v-51.434l39.407-13.539v1.845l-12.768 4.285-.403-.193v.327l-24.567 8.242v50.303c0 .209.179.387.387.387a.394.394 0 00.388-.387v-49.455l.968.402v48.815c0 .209.179.387.387.387a.394.394 0 00.388-.387v-48.8l18.965-6.085v52.222c0 .208.179.387.388.387a.395.395 0 00.387-.387v-54.067l2.339-.789v54.44c0 .208.179.386.388.386a.394.394 0 00.387-.386v-54.365l1.46.684v53.383c0 .208.179.387.387.387a.395.395 0 00.388-.387v-53.353l10.175-3.467v55.347c0 .208.179.387.388.387a.395.395 0 00.387-.387v-64.586a.395.395 0 00-.387-.387.395.395 0 00-.388.387v4.047l-39.838 13.688-7.717-.923h-.045c-.06 0-.09.045-.134.06-.03.015-.075.015-.104.045-.045.044-.06.089-.09.148-.015.03-.044.06-.06.09v53.903c0 .208.18.387.388.387h-.045zm31.317-57.668l-19.324 6.204-.655-.267 19.979-6.71v.773zm5.736-1.726l-1.222-.565 11.755-3.943v.923l-10.533 3.6v-.015zM28.605 230.7a.394.394 0 00.387-.386v-39.398l4.991.685v36.749c0 .208.179.387.388.387a.395.395 0 00.387-.387v-36.809l32.15-10.325v1.77l-12.99 3.869-.403-.164v.283l-17.223 5.133-.268.074v35.871c0 .208.179.387.388.387a.395.395 0 00.387-.387v-35.038l.626.223v34.637c0 .208.178.386.387.386a.394.394 0 00.387-.386v-34.607l13.29-3.868v36.6c0 .208.179.387.387.387a.395.395 0 00.388-.387v-37.835l1.28-.387v37.939c0 .209.18.387.388.387a.394.394 0 00.387-.387v-37.879l.73.297v37.389c0 .208.18.387.388.387a.395.395 0 00.387-.387v-37.359l11.13-3.303v39.055c0 .208.178.387.387.387a.395.395 0 00.387-.387v-47.312a.394.394 0 00-.387-.387.394.394 0 00-.388.387v3.808l-32.568 10.46-5.676-.774h-.06c-.044 0-.074.03-.119.045-.044.015-.089.015-.134.059-.044.03-.06.089-.074.134-.015.03-.045.06-.06.089v39.904c0 .208.179.386.388.386l-.045-.015zm22.854-42.09l-13.662 3.988-.179-.06 13.841-4.121v.208-.015zm3.948-1.131l-.357-.148 11.859-3.526v.282l-11.487 3.407-.015-.015zm120.766 69.705H67.966v53.933l108.207 15.086v-69.019zm-100.638.758h2.503v50.021l97.361 11.352v3.184l-99.864-13.138v-51.419zm51.95 55.02v-55.02h2.265v55.288l-2.265-.268zm-.774-.09l-4.276-.49v-54.44h4.276v54.93zm-5.036-.58l-40.42-4.716v-49.634h40.42v54.35zm-41.194-5.043h-1.683v-49.307h1.683v49.307zm94.918 11.307l-44.889-5.237v-55.362h44.889v60.614-.015zM74.76 257.942v51.434l-6.034.952v-52.386h6.034zm-3.814 52.818l4.201-.655 100.237 13.182v2.038l-104.453-14.55.015-.015z" fill="#fff" fill-opacity=".2"/></svg>
